public/Images/hand.svg

<svg width="170" height="132" viewBox="0 0 170 132" fill="none" xmlns="http://www.w3.org/2000/svg">
<g clip-path="url(#clip0)">
<path d="M123.507 2.93994C123.507 2.93994 114.637 3.93997 113.577 7.27997C112.517 10.62 108.577 53.2799 109.117 57.6199C108.257 58.5599 65.9671 105.55 103.837 91.55C103.846 91.5467 103.856 91.5457 103.866 91.5472C103.876 91.5487 103.885 91.5525 103.893 91.5585C103.901 91.5644 103.907 91.5723 103.912 91.5812C103.916 91.5902 103.918 91.6001 103.917 91.61C103.347 93.7 94.9171 125.41 109.297 130.11C124.147 134.97 137.787 121.2 144.597 99.28C144.597 99.28 150.657 82.28 147.267 72.64C147.267 72.64 147.267 72.64 147.267 72.59C147.767 71.74 165.817 40.6499 169.667 22.3799C170.061 20.4801 170.074 18.5211 169.707 16.616C169.339 14.7109 168.599 12.8974 167.527 11.28L165.707 10.28C165.307 10.13 147.947 0.119944 123.507 2.93994Z" fill="#897879"/>
<path d="M47.369 0.809885C47.369 0.809885 56.189 2.11989 57.129 5.49989C58.069 8.87989 60.499 51.8699 59.749 55.9999C59.749 55.9999 101.609 105.74 63.699 90.0599C63.699 90.0599 71.949 124.13 56.939 128.45C41.929 132.77 28.779 118.45 22.779 96.3499C22.779 96.3499 17.329 79.0799 21.089 69.5999C21.089 69.5999 -1.34098 27.7499 0.0890189 11.7899L3.08902 7.56989C16.8691 1.03066 32.2655 -1.31985 47.369 0.809885Z" fill="#897879"/>
</g>
<defs>
<clipPath id="clip0">
<rect width="169.97" height="131.13" fill="white"/>
</clipPath>
</defs>
</svg>

<svg xmlns="http://www.w3.org/2000/svg" width="170" height="132" fill="none"><g clip-path="url(#A)" fill="#897879"><path d="M123.507 2.94s-8.87 1-9.93 4.34-5 46-4.46 50.34c-.86.94-43.15 47.93-5.28 33.93.01-.003.02-.004.03-.003s.02.005.027.01a.07.07 0 0 1 .019.023c.004.01.006.02.005.03-.57 2.1-9 33.8 5.38 38.5 14.85 4.86 28.5-8.9 35.3-30.83 0 0 6.06-17 2.67-26.64v-.05c.5-.85 18.55-31.94 22.4-50.2.394-1.9.407-3.86.04-5.764s-1.108-3.72-2.18-5.336l-1.82-1c-.4-.15-17.76-10.16-42.2-7.34zM47.37.8s8.82 1.3 9.76 4.7S60.5 51.87 59.75 56c0 0 41.86 49.74 3.95 34.06 0 0 8.25 34.07-6.76 38.4s-28.16-10-34.16-32.1c0 0-5.45-17.27-1.7-26.75 0 0-22.43-41.85-21-57.8l3-4.22A77.91 77.91 0 0 1 47.369.81z"/></g><defs><clipPath id="A"><path fill="#fff" d="M0 0h169.97v131.13H0z"/></clipPath></defs></svg>
